X: 21811
Q: "Moderate."
M: 2/4
L: 1/16
K: F
c2A2A2F2 | G3FG2A2 | F2D2D2C2 | F6 :|\
d2 |\
cA3A3F | {A}G3FG2A2 | c2A2A2c2 | d6 f2 |
c2A2A2F2 | G3FG2A2 | F2D2D3C | F6 d2 |\
c2A2 BAGF | {A}G2F2G2A2 | c2A2A2c2 | d4 defd |\
c2Ac BAGF | G3F GBAG | F2D2D3C | F4 F2 |]


